X:1
T:Norsjöpolskan
R:Polska
O:Norsjö, Lappland
N:Polskan kommer egentligen från Nordsjö, men på något sätt så har denna polska blivit förknippad med Norsjö.
M:3/4
L:1/8
K:G
| D2|: B2 (3BcB (3ABA | G2 GD DB | d2 dc Ac | B2 BA GD | B2 (3BcB (3ABA | G2 GD GB | d2 dc AF |1 G2 G2 D2 :|2 G2 G2 z2 |]: C2 EG EG | G,2 B,D GB | A2 AD FA | G2 Bd g2 | C2 EG EG | G,2 B,D GB |A2 AD FA | G2 G2 z2 :|

